svg/color/bnb.svg

<svg height="32" width="32" xmlns="http://www.w3.org/2000/svg"><g fill="none"><circle cx="16" cy="16" fill="#f3ba2f" r="16"/><path d="m12.116 14.404 3.884-3.884 3.886 3.886 2.26-2.26-6.146-6.146-6.144 6.144zm-6.116 1.596 2.26-2.26 2.26 2.26-2.26 2.26zm6.116 1.596 3.884 3.884 3.886-3.886 2.26 2.259-6.146 6.147-6.144-6.144-.003-.003zm9.364-1.596 2.26-2.26 2.26 2.26-2.26 2.26zm-3.188-.002h.002v.002l-2.294 2.294-2.291-2.29-.004-.004.004-.003.401-.402.195-.195 1.695-1.694 2.293 2.293z" fill="#fff"/></g></svg>

<svg xmlns="http://www.w3.org/2000/svg" width="32" height="32"><g fill="none"><circle cx="16" cy="16" r="16" fill="#F3BA2F"/><path fill="#FFF" d="M12.116 14.404L16 10.52l3.886 3.886 2.26-2.26L16 6l-6.144 6.144 2.26 2.26zM6 16l2.26-2.26L10.52 16l-2.26 2.26L6 16zm6.116 1.596L16 21.48l3.886-3.886 2.26 2.259L16 26l-6.144-6.144-.003-.003 2.263-2.257zM21.48 16l2.26-2.26L26 16l-2.26 2.26L21.48 16zm-3.188-.002h.002v.002L16 18.294l-2.291-2.29-.004-.004.004-.003.401-.402.195-.195L16 13.706l2.293 2.293z"/></g></svg>
